packages/ui/assets/svg/partner_harmony.svg

<svg class="partner-size" width="100" height="20" viewBox="0 0 100 20" fill="none" xmlns="http://www.w3.org/2000/svg">
<g id="partner_harmony" clip-path="url(#clip0_205_79)">
<path d="M15.4306 0C13.1129 0 11.2222 1.88595 11.1612 4.19777V8.88221C10.7343 8.88221 10.3074 8.94306 9.81945 8.94306C9.33151 8.94306 8.90457 8.94306 8.47769 9.0039V4.19777C8.47769 1.88595 6.52599 0 4.14734 0.0608373C1.8907 0.0608373 0.0609904 1.94679 0 4.19777V15.3918C0.0609904 17.7036 1.95169 19.5896 4.33031 19.5287C6.64793 19.4679 8.47769 17.6428 8.47769 15.3918V10.7074C8.90457 10.7074 9.33151 10.6465 9.81945 10.6465C10.3074 10.6465 10.7343 10.6465 11.1612 10.5857V15.331C11.2222 17.6428 13.1129 19.5287 15.4916 19.4679C17.8092 19.407 19.6389 17.5819 19.6389 15.331V4.19777C19.6389 1.88595 17.7482 0 15.4306 0ZM4.26933 1.70344C5.6721 1.70344 6.76993 2.79851 6.76993 4.19777V9.1256C5.55012 9.30808 4.33031 9.6731 3.1715 10.1598C2.68358 10.4031 2.19565 10.6465 1.76872 11.0116V4.19777C1.76872 2.85935 2.86655 1.70344 4.26933 1.70344ZM6.76993 15.3918C6.76993 16.791 5.6721 17.8861 4.26933 17.8861C2.86655 17.8861 1.76872 16.791 1.76872 15.3918V14.2967C1.76872 13.3234 2.56159 12.3499 3.90339 11.8024C4.81824 11.3766 5.79409 11.1332 6.83093 10.9507L6.76993 15.3918ZM15.4306 17.8861C14.0278 17.8861 12.93 16.791 12.93 15.3918V10.464C14.1498 10.2815 15.3696 9.91649 16.5284 9.42977C17.0163 9.18644 17.5043 8.94306 17.9312 8.57804V15.3918C17.9312 16.791 16.7724 17.8861 15.4306 17.8861ZM15.7965 7.84799C14.8817 8.27386 13.9058 8.51719 12.869 8.69973V4.19777C12.869 2.79851 13.9668 1.70344 15.3696 1.70344C16.7724 1.70344 17.8702 2.79851 17.8702 4.19777V5.29284C17.9312 6.32706 17.1383 7.23964 15.7965 7.84799Z" fill="url(#paint0_linear_205_79)"></path>
<path class="fill" d="M76.3598 6.75256C73.7375 6.75256 71.5416 8.88185 71.6028 11.5587C71.6028 14.1747 73.7375 16.3648 76.421 16.304C79.0434 16.304 81.1781 14.1747 81.1781 11.4978C81.1781 8.94269 79.0433 6.75256 76.3598 6.75256ZM79.5922 11.5587C79.5922 13.323 78.1286 14.7831 76.3598 14.7831C74.591 14.7831 73.1275 13.323 73.1275 11.5587C73.1275 9.79443 74.591 8.33434 76.3598 8.33434C78.1898 8.33434 79.5922 9.79443 79.5922 11.5587Z" fill="#333333"></path>
<path class="fill" d="M47.5715 6.81403C47.1445 6.81403 46.7786 7.17906 46.7786 7.60492V8.03073C44.8269 6.26647 41.7774 6.38817 40.0087 8.33497C38.24 10.2818 38.3619 13.3236 40.3136 15.0879C42.1433 16.7913 44.9489 16.7913 46.7786 15.0879V15.5138C46.7786 15.9396 47.0835 16.3047 47.5105 16.3047C47.9374 16.3047 48.3034 16.0004 48.3034 15.5746V15.5138V7.60492C48.3644 7.17906 47.9984 6.81403 47.5715 6.81403ZM46.7786 11.5593C46.7786 13.3236 45.3148 14.7837 43.5461 14.7837C41.7774 14.7837 40.3136 13.3236 40.3136 11.5593C40.3136 9.79505 41.7774 8.33497 43.5461 8.33497C45.3759 8.33497 46.7786 9.79505 46.7786 11.5593Z" fill="#333333"></path>
<path class="fill" d="M55.9293 7.54345C55.9293 7.96932 55.5634 8.33434 55.1365 8.33434H55.0145C53.2458 8.33434 51.782 9.79443 51.782 11.5587C51.721 11.7412 51.782 14.1747 51.782 15.6348C51.721 16.0606 51.3551 16.3648 50.9281 16.304C50.5622 16.2432 50.2572 15.8782 50.2572 15.5131V7.6043C50.2572 7.17843 50.6232 6.81341 51.0501 6.81341H51.1111C51.5381 6.87426 51.843 7.17843 51.843 7.6043V8.03017C52.6969 7.23928 53.8556 6.75256 55.0755 6.75256H55.1975C55.5634 6.75256 55.9293 7.11759 55.9293 7.54345Z" fill="#333333"></path>
<path class="fill" d="M90.3875 10.768V15.5132C90.3875 15.9391 90.0216 16.3041 89.5945 16.3041C89.1675 16.3041 88.8016 15.9391 88.8016 15.5132V14.7223V10.768C88.8016 9.4295 87.7039 8.33444 86.3622 8.33444C86.301 8.33444 86.2398 8.33444 86.1792 8.33444C84.8981 8.39528 83.9222 9.55119 83.9222 10.8288V11.7413V14.6616V15.4524C83.9222 15.8783 83.5563 16.2433 83.1298 16.2433C82.7028 16.2433 82.3369 15.8783 82.3369 15.4524V7.60439C82.3369 7.17853 82.7028 6.8135 83.1298 6.8135C83.5563 6.8135 83.9222 7.17853 83.9222 7.60439V7.66524C84.5322 7.17852 85.3251 6.87435 86.1792 6.8135C88.3745 6.69187 90.2657 8.39528 90.3263 10.5854C90.3874 10.6463 90.3875 10.7071 90.3875 10.768Z" fill="#333333"></path>
<path class="fill" d="M37.2651 4.01512V15.5742C37.2651 16.0001 36.8992 16.3651 36.4722 16.3651C36.0453 16.3651 35.6793 16.0001 35.6793 15.5742V10.3422H27.7506V15.5742C27.7506 16.0001 27.3847 16.3651 26.9577 16.3651C26.5308 16.3651 26.2258 16.0001 26.2258 15.5742V4.01512C26.2258 3.58926 26.5918 3.22424 27.0187 3.22424C27.4457 3.22424 27.8116 3.58926 27.8116 4.01512V9.06459H35.8013V4.01512C35.8013 3.58926 36.1673 3.22424 36.5942 3.22424C36.8992 3.28508 37.2651 3.58926 37.2651 4.01512Z" fill="#333333"></path>
<path class="fill" d="M70.444 11.133V15.5133C70.444 15.9392 70.0781 16.3042 69.6516 16.3042C69.2245 16.3042 68.8587 15.9392 68.8587 15.5133V11.5589V10.5247C68.8587 9.30792 67.9434 8.33455 66.724 8.33455C65.504 8.33455 64.5281 9.24707 64.5281 10.4638C64.5281 10.5247 64.5281 10.5247 64.5281 10.5855V15.635C64.5281 16.0608 64.2234 16.4259 63.7963 16.4259C63.3693 16.4259 63.0034 16.1217 63.0034 15.6958V15.635V11.5589V10.5247C63.0034 9.30792 62.0887 8.33455 60.8687 8.33455C59.6487 8.33455 58.673 9.24707 58.673 10.4638C58.673 10.5247 58.673 10.5247 58.673 10.5855V15.635C58.673 16.0608 58.3681 16.4259 57.9412 16.4259C57.5142 16.4259 57.1483 16.1217 57.1483 15.6958V15.635V7.72614C57.1483 7.30027 57.5142 6.93525 57.9412 6.93525C58.3071 6.93525 58.673 7.23948 58.734 7.6045C60.381 6.44859 62.6375 6.75277 63.8575 8.33455C65.0769 6.69192 67.4557 6.38775 69.0416 7.66529C69.9563 8.39533 70.5051 9.49046 70.5051 10.6463L70.444 11.133Z" fill="#333333"></path>
<path class="fill" d="M99.9021 7.90887L94.6568 19.2246C94.4127 19.5896 93.9251 19.7113 93.5592 19.468C93.2539 19.2854 93.071 18.9204 93.1933 18.5554L94.5957 15.5135L91.1192 7.90887C90.8757 7.54385 90.9974 7.05719 91.3633 6.8138C91.7292 6.57047 92.2174 6.69217 92.461 7.05719C92.461 7.11798 92.5221 7.17882 92.5221 7.17882L95.511 13.5667L98.4992 7.17882C98.621 6.75296 99.1092 6.57047 99.4751 6.69217C99.9021 6.8138 100.085 7.30052 99.9627 7.66554C99.9627 7.84802 99.9021 7.90887 99.9021 7.90887Z" fill="#333333"></path>
</g>
<defs>
<linearGradient id="paint0_linear_205_79" x1="9.81945" y1="0" x2="-3.68666" y2="13.5401" gradientUnits="userSpaceOnUse">
<stop stop-color="#00E8A2"></stop>
<stop offset="1" stop-color="#00ADE8"></stop>
</linearGradient>
<clipPath id="clip0_205_79">
<rect width="100" height="19.5946" fill="white"></rect>
</clipPath>
</defs>
</svg>

<svg class="partner-size" width="100" height="20" viewBox="0 0 100 20" fill="none" xmlns="http://www.w3.org/2000/svg"><g clip-path="url(#clip0_205_79)"><path d="M15.43 0c-2.317 0-4.208 1.886-4.269 4.198v4.684c-.427 0-.854.061-1.342.061-.487 0-.914 0-1.341.06V4.199C8.478 1.886 6.526 0 4.148.06 1.89.06.06 1.947 0 4.198v11.194c.061 2.312 1.952 4.198 4.33 4.137 2.318-.061 4.148-1.886 4.148-4.137v-4.685c.427 0 .854-.06 1.341-.06.488 0 .915 0 1.342-.061v4.745c.061 2.312 1.952 4.198 4.33 4.137 2.318-.061 4.148-1.886 4.148-4.137V4.198C19.639 1.886 17.749 0 15.43 0ZM4.27 1.703a2.47 2.47 0 0 1 2.5 2.495v4.928c-1.22.182-2.44.547-3.598 1.034-.488.243-.976.486-1.403.852V4.198a2.509 2.509 0 0 1 2.5-2.495Zm2.5 13.689a2.47 2.47 0 0 1-2.5 2.494 2.47 2.47 0 0 1-2.501-2.494v-1.095c0-.974.793-1.947 2.134-2.495.915-.425 1.891-.669 2.928-.851l-.061 4.44Zm8.66 2.494a2.47 2.47 0 0 1-2.5-2.494v-4.928c1.22-.183 2.44-.548 3.598-1.034.488-.244.976-.487 1.403-.852v6.814c0 1.399-1.159 2.494-2.5 2.494Zm.367-10.038c-.915.426-1.891.67-2.928.852V4.198a2.47 2.47 0 0 1 2.5-2.495 2.47 2.47 0 0 1 2.501 2.495v1.095c.061 1.034-.732 1.947-2.074 2.555Z" fill="url(#paint0_linear_205_79)"/><path class="fill" d="M76.36 6.753c-2.623 0-4.818 2.129-4.757 4.806 0 2.616 2.135 4.806 4.818 4.745 2.622 0 4.757-2.13 4.757-4.806 0-2.555-2.135-4.745-4.818-4.745Zm3.232 4.806c0 1.764-1.463 3.224-3.232 3.224-1.769 0-3.233-1.46-3.233-3.224 0-1.765 1.464-3.225 3.233-3.225a3.21 3.21 0 0 1 3.232 3.225ZM47.572 6.814a.806.806 0 0 0-.793.79v.427c-1.952-1.765-5.002-1.643-6.77.304-1.769 1.947-1.647 4.989.305 6.753a4.728 4.728 0 0 0 6.465 0v.426c0 .426.304.79.731.79s.793-.304.793-.73v-7.97c.061-.425-.305-.79-.731-.79Zm-.793 4.745c0 1.765-1.464 3.225-3.233 3.225-1.769 0-3.232-1.46-3.232-3.225 0-1.764 1.463-3.224 3.232-3.224a3.21 3.21 0 0 1 3.233 3.224ZM55.93 7.543c0 .426-.367.791-.794.791h-.122c-1.768 0-3.232 1.46-3.232 3.225-.061.182 0 2.616 0 4.076-.061.426-.427.73-.854.669a.843.843 0 0 1-.67-.79v-7.91c0-.426.365-.79.792-.79h.061c.427.06.732.364.732.79v.426a4.791 4.791 0 0 1 3.232-1.277h.122c.366 0 .732.365.732.79ZM90.388 10.768v4.745c0 .426-.366.791-.794.791a.806.806 0 0 1-.792-.79v-4.746a2.444 2.444 0 0 0-2.44-2.434h-.183c-1.28.061-2.257 1.217-2.257 2.495v4.623c0 .426-.366.791-.792.791a.806.806 0 0 1-.793-.79V7.603c0-.425.366-.79.793-.79.426 0 .792.365.792.79v.061c.61-.486 1.403-.79 2.257-.851 2.195-.122 4.087 1.581 4.147 3.771.061.061.062.122.062.183ZM37.265 4.015v11.56c0 .425-.366.79-.793.79a.806.806 0 0 1-.793-.79v-5.233h-7.928v5.232c0 .426-.366.791-.793.791-.427 0-.732-.365-.732-.79V4.014c0-.426.366-.79.793-.79.427 0 .793.364.793.79v5.05h7.99v-5.05c0-.426.365-.79.792-.79.305.06.671.364.671.79ZM70.444 11.133v4.38c0 .426-.366.791-.792.791a.806.806 0 0 1-.793-.79v-4.989c0-1.217-.916-2.19-2.135-2.19-1.22 0-2.196.912-2.196 2.129V15.635c0 .426-.305.79-.732.79s-.793-.303-.793-.73V10.526c0-1.217-.914-2.19-2.134-2.19-1.22 0-2.196.912-2.196 2.129V15.635c0 .426-.305.79-.732.79s-.793-.303-.793-.73V7.727c0-.426.366-.79.793-.79.366 0 .732.303.793.668 1.647-1.155 3.904-.851 5.123.73 1.22-1.642 3.599-1.946 5.185-.669.914.73 1.463 1.825 1.463 2.981l-.061.487ZM99.902 7.909l-5.245 11.316c-.244.365-.732.486-1.098.243-.305-.183-.488-.548-.366-.913l1.403-3.041-3.477-7.605c-.243-.365-.122-.852.244-1.095.366-.244.854-.122 1.098.243 0 .061.061.122.061.122l2.989 6.388 2.988-6.388c.122-.426.61-.609.976-.487.427.122.61.609.488.974 0 .182-.06.243-.06.243Z" fill="#333"/></g><defs><linearGradient id="paint0_linear_205_79" x1="9.819" y1="0" x2="-3.687" y2="13.54" gradientUnits="userSpaceOnUse"><stop stop-color="#00E8A2"/><stop offset="1" stop-color="#00ADE8"/></linearGradient><clipPath id="clip0_205_79"><path fill="#fff" d="M0 0h100v19.595H0z"/></clipPath></defs></svg>
